web/packages/design/src/ResourceIcon/assets/cultureamp-dark.svg

<svg width="72" height="72" viewBox="0 0 72 72" fill="none" xmlns="http://www.w3.org/2000/svg">
<g clip-path="url(#clip0_8803_4413)">
<path d="M57.6346 45.3616C57.85 45.7203 57.9243 46.1464 57.8429 46.5566C57.0824 50.0121 55.232 53.1318 52.5647 55.4564C52.4184 55.5671 52.2954 55.7056 52.2026 55.8637C52.1693 55.9362 52.152 56.0149 52.152 56.0946C52.152 56.1744 52.1693 56.2531 52.2026 56.3254C52.2558 56.3873 52.3229 56.4361 52.3983 56.4674C52.4739 56.499 52.5555 56.5124 52.6372 56.5066C53.0235 56.4037 53.3968 56.2578 53.7506 56.072C55.3152 55.1833 56.6975 54.0068 57.8247 52.6044C58.5038 51.7806 59.1737 50.9567 59.8165 50.1056C61.027 48.4247 61.9228 46.5383 62.4603 44.5378C62.949 42.9173 63.3655 41.2785 63.8725 39.658C64.0797 39.0637 64.3308 38.4858 64.6241 37.9288C64.7419 37.7573 64.8786 37.5994 65.0314 37.458H65.1582C65.2848 37.8834 65.4389 38.2909 65.5293 38.7255C65.7661 40.0921 65.7997 41.4863 65.629 42.863C65.4411 44.6545 65.0741 46.4227 64.5335 48.1411C64.1548 49.1973 63.6437 50.2011 63.0125 51.1287C61.426 53.7436 59.5524 56.1728 57.4264 58.3715C55.8603 59.884 54.1671 61.2591 52.3654 62.4819C52.2341 62.5492 52.1147 62.638 52.0125 62.7445C51.9071 62.8713 51.8523 63.0323 51.8586 63.1972C51.8964 63.2708 51.9516 63.3338 52.0194 63.3812C52.0872 63.4287 52.1657 63.4586 52.2478 63.4687C52.6264 63.4662 53.0036 63.4177 53.3704 63.3238C55.0432 62.8418 56.6078 62.0426 57.9786 60.9699C61.8132 58.1429 64.9274 54.4519 67.0683 50.1962C68.4327 47.4195 69.3173 44.432 69.6848 41.3599C69.9051 39.4207 69.9264 37.464 69.7483 35.5206C69.5929 34.5246 69.6235 33.5084 69.8387 32.5239C69.8957 32.2982 69.9778 32.0794 70.0832 31.8719C70.3276 31.401 70.6808 31.374 70.9161 31.8719C71.1637 32.3431 71.3464 32.8457 71.4594 33.3657C71.9564 35.8561 72.1118 38.4023 71.921 40.9345C71.5697 45.0484 70.5354 49.0749 68.861 52.8489C67.1652 56.7347 64.6189 60.1906 61.4099 62.9616C60.3688 63.8671 59.373 64.7725 58.2956 65.6235C57.0016 66.5643 55.6153 67.3713 54.1581 68.0316C50.9429 69.629 47.521 70.7717 43.991 71.4266C41.8275 71.8022 39.6304 71.948 37.4362 71.8612C36.359 71.8612 35.2724 71.789 34.1952 71.7346C31.7595 71.5998 29.3564 71.1117 27.0608 70.2859C23.7369 69.1293 20.542 67.6303 17.5276 65.8137C14.0122 63.6582 11.0141 60.7558 8.74569 57.3122C7.62587 55.6928 6.65038 53.9782 5.83047 52.188C5.78867 52.0817 5.72141 51.9873 5.63458 51.9131C5.54776 51.839 5.44402 51.7871 5.33252 51.7625C4.73716 51.6145 4.18328 51.3329 3.71273 50.9392C3.2422 50.5455 2.86733 50.0499 2.61646 49.4901C1.94513 47.8506 1.42393 46.1538 1.05927 44.4201C0.395767 41.6214 0.0405593 38.7586 0 35.8827C0.0271921 34.0618 0.193662 32.2458 0.497946 30.4504C0.841602 28.0111 1.44872 25.6161 2.30865 23.3073C3.06919 21.2868 4.1381 19.3964 5.47737 17.7032C6.25598 16.7254 6.89878 15.6299 7.65926 14.634C12.4858 8.25496 19.3961 3.76988 27.1877 1.95911C28.6905 1.59697 30.1935 1.21672 31.7145 0.936059C33.0724 0.682561 34.4305 0.5196 35.8246 0.392849C37.4362 0.247994 39.0477 0.121245 40.6684 0.103138C47.1698 0.0126086 53.5388 1.94573 58.8932 5.63484C59.5034 6.00389 60.0532 6.46503 60.5226 7.00192C60.8696 7.42441 61.1004 7.92986 61.1928 8.46859C61.2285 8.59534 61.301 8.7087 61.401 8.79452C62.6775 10.0258 64.0356 11.1937 65.2125 12.5155C67.0829 14.5589 68.4365 17.0208 69.1599 19.6949C69.4913 20.775 69.6067 21.9098 69.4996 23.0345C69.3922 24.1591 69.0646 25.2517 68.5351 26.2497C67.6496 27.7405 66.4045 28.9856 64.9137 29.8711C63.2552 30.9995 61.2657 31.5384 59.2643 31.401C57.3933 31.3156 55.6174 30.5531 54.2668 29.2554C52.8479 27.7809 51.3359 26.3989 49.74 25.1179C48.6899 24.3212 47.6033 23.5699 46.508 22.8546C45.1836 22.0588 43.7166 21.5298 42.1894 21.2974C40.4521 20.9797 38.6829 20.8733 36.9202 20.9806C33.0666 21.054 29.338 22.3614 26.2822 24.7106C23.9923 26.4407 22.1075 28.6499 20.7597 31.1838C19.9964 32.7214 19.515 34.3834 19.3383 36.0909C19.1909 37.1442 19.1063 38.2053 19.0848 39.2686C19.1702 42.2998 19.9606 45.2694 21.3935 47.9418C22.4521 50.015 23.861 51.8894 25.558 53.4828C27.1364 54.9011 28.8851 56.1176 30.7639 57.104C32.9022 58.2633 35.2637 58.9515 37.6898 59.123C40.8758 59.4556 44.0939 58.9727 47.0421 57.7197C48.455 57.0554 49.7561 56.176 50.8988 55.1122C52.8725 53.4148 54.5281 51.3789 55.7878 49.1006C56.2586 48.2769 56.5845 47.3715 56.9829 46.5025C57.1005 46.2399 57.2363 45.9773 57.372 45.7239C57.455 45.6009 57.5523 45.4886 57.6619 45.3889" fill="white"/>
</g>
<defs>
<clipPath id="clip0_8803_4413">
<rect width="72" height="72" fill="white"/>
</clipPath>
</defs>
</svg>

<svg xmlns="http://www.w3.org/2000/svg" width="72" height="72" fill="none" viewBox="0 0 72 72"><g clip-path="url(#a)"><path fill="#fff" d="M57.635 45.362c.215.358.29.784.208 1.195a16.5 16.5 0 0 1-5.278 8.9c-.147.11-.27.249-.362.407a.55.55 0 0 0 0 .461.52.52 0 0 0 .434.182q.581-.156 1.114-.435a14.3 14.3 0 0 0 4.074-3.468 75 75 0 0 0 1.991-2.498 17.1 17.1 0 0 0 2.644-5.568c.489-1.62.905-3.26 1.413-4.88q.311-.892.751-1.73.178-.257.407-.47h.127c.127.425.28.833.371 1.267.237 1.367.27 2.761.1 4.138a27 27 0 0 1-1.096 5.278 13.3 13.3 0 0 1-1.52 2.988 41 41 0 0 1-5.587 7.243 38 38 0 0 1-5.06 4.11 1.3 1.3 0 0 0-.353.263.67.67 0 0 0-.154.452.5.5 0 0 0 .389.272 4.7 4.7 0 0 0 1.122-.145 13.6 13.6 0 0 0 4.609-2.354 30.3 30.3 0 0 0 9.09-10.774 27.4 27.4 0 0 0 2.616-8.836c.22-1.94.241-3.896.063-5.84a8.2 8.2 0 0 1 .09-2.996q.087-.34.245-.652c.245-.471.598-.498.833 0 .248.471.43.974.543 1.494.497 2.49.653 5.036.462 7.569a37.2 37.2 0 0 1-3.06 11.914 28.3 28.3 0 0 1-7.451 10.113c-1.041.905-2.037 1.81-3.114 2.662a23.6 23.6 0 0 1-4.138 2.408 38.7 38.7 0 0 1-10.167 3.395 31 31 0 0 1-6.555.434c-1.077 0-2.164-.072-3.24-.126a25.2 25.2 0 0 1-7.135-1.45 51 51 0 0 1-9.533-4.471 28.1 28.1 0 0 1-8.782-8.502 33.6 33.6 0 0 1-2.916-5.124.7.7 0 0 0-.497-.425 4.05 4.05 0 0 1-2.717-2.273 29.3 29.3 0 0 1-1.557-5.07A39.4 39.4 0 0 1 0 35.883a36 36 0 0 1 .498-5.433c.344-2.439.95-4.834 1.81-7.143a21 21 0 0 1 3.17-5.604c.778-.978 1.42-2.073 2.181-3.069A34.2 34.2 0 0 1 27.188 1.959c1.503-.362 3.006-.742 4.527-1.023a44 44 0 0 1 4.11-.543c1.611-.145 3.223-.272 4.843-.29a31.35 31.35 0 0 1 18.225 5.532c.61.369 1.16.83 1.63 1.367.347.422.577.928.67 1.467.035.126.108.24.208.326 1.276 1.23 2.635 2.399 3.812 3.72a17.34 17.34 0 0 1 3.947 7.18 8.6 8.6 0 0 1-.625 6.555 10.4 10.4 0 0 1-3.621 3.621 8.95 8.95 0 0 1-5.65 1.53 7.72 7.72 0 0 1-4.997-2.146 48 48 0 0 0-4.527-4.137 56 56 0 0 0-3.232-2.263 11.8 11.8 0 0 0-4.319-1.558 22 22 0 0 0-5.269-.316 18 18 0 0 0-10.638 3.73 19.7 19.7 0 0 0-5.522 6.473 14.4 14.4 0 0 0-1.422 4.907 27 27 0 0 0-.253 3.178c.085 3.03.876 6 2.308 8.673a20.2 20.2 0 0 0 4.165 5.54 25.6 25.6 0 0 0 5.206 3.622 17.05 17.05 0 0 0 6.926 2.019c3.186.333 6.404-.15 9.352-1.403a15 15 0 0 0 3.857-2.608 21.9 21.9 0 0 0 4.889-6.011c.47-.824.797-1.73 1.195-2.599.117-.262.253-.525.389-.778q.125-.185.29-.335"/></g><defs><clipPath id="a"><path fill="#fff" d="M0 0h72v72H0z"/></clipPath></defs></svg>
